X:1
T:Come again.
T:Come again.
T:JOHN DOWLAND.
T:1st Book of Ayres 1597
C:JOHN DOWLAND.
%%score 1 ( 2 3 4 ) ( 5 6 )
L:1/8
Q:1/4=170
M:4/2
K:G
V:1 treble nm="Voice"
V:2 treble nm="Piano"
V:3 treble 
V:4 treble 
V:5 bass 
V:6 bass 
V:1
"^Con spirito." z16 | z16 | z4 B3 c d8 | z4 d4 e4 d4 |[K:G] c6 c2 B8 | z4 d4 d4 d4 | c4 B4 A8 | %7
w: ||Come a- gain,|sweete love doth|now in- vite|Thy gra- ces|that re- fraine,|
 z4 A4 B4 G4 | A6 A2 A8 |: z2 D2 G4 z2 E2 A4 | z2 F2 B4 z2 G2 c4 | z2 A2 d12- | d8 z2 d2 c2 B2 | %13
w: To do me|due de- light.|To see, to heare,|to touch, to kisse,|to die|_ With thee a-|
 A4 z2 B2[Q:1/4=140]"^T" A2 G2 (G4- | G2 FE) F4[Q:1/4=170]"^T" G8 :| z16 | z16 | z4 B3 c d8 | %18
w: gain in sweet- est sym-|* * * pa- thy.|||Come a- gain!|
 z4 d4 e4 d4 | c6 c2 B8 | z4 d4 d4 c4 | B4 B4 A8 | z4 A4 B4 G4 | A6 A2 A8 |: z2 D2 G4 z2 E2 A4 | %25
w: that I may|cease to mourne|through thy un-|kind dis- daine,|For now, left|and for- lorne|I sit, I sigh,|
 z2 F2 B4 z2 G2 c4 | z2 A2 d12- | d8 z2 d2 c2 B2 | A4 z2 B2[Q:1/4=140]"^T" A2 G2 (G4- | %29
w: I weepe, I faint,|I die|_ In dead- ly|paine, and end- less mi-|
 G2 FE) F4[Q:1/4=170]"^T" G8 :| z16 | z16 | z4 B3 c d8 | z4 d4 e4 d4 | c6 c2 B8 | z4 d4 d4 c4 | %36
w: * * * se- ry.|||Gent- le love|draw forth thy|wound- ing dart;|Thou canst not|
 B4 B4 A8 | z4 A4 B4 G4 | A6 A2 A8 | z2 D2 G4 z2 E2 A4 | z2 F2 B4 z2 G2 c4 | z2 A2 d12- | %42
w: pierce her heart,|For I that|do ap- prove|by sighs, and tears|more hot than are|thy shafts|
 d8- d4 (c2 B2) | A4 z2 B2[Q:1/4=140]"^T" A2 G2 (G4- | G2 FE) F4 G8 |] %45
w: _ _ did *|tempt, while she for tri-|* * * umph laughs.|
V:2
 z8 ([GB]3 [Ac]) [DGB]4 | A2 G2 G8 [A,DF]4 | [B,DG]4 z8 ([GB]3 [Ac] | %3
 [Bd]4 [DGd]4) [EGe]4 [DG-d]4 |[K:G] [EGc]4 [DFc]4 [DGB]8 | z4 [DB]4 [DB]4 (E2 F2) | G8 (F6 G2 | %7
 A8) B4 G4 | [EG]8 [DF]8 |: z2 (D2 G2 F2) z2 (E2 A2 G2) | z2!>(! (F2 B2 A2) z2 (G2 c2 B2) | %11
 z2 A2- d2!>)! c2!<(! [GB]4 [Bd]4!<)! |!<(! [DB]4 [CFA]4 (G2 F2!<)! E2 G2) | %13
 [CDF]4 [DG]4"_dim." [CE]4 G4 |!>(! G4 F4!>)! G8 :|!f! z4 ([GB]3 [Ac] [Bd]4) [DGB]4 | %16
 A2 G2 G8 [A,DF]4 | [B,DG]4 z4 z4 ([GB]3 [Ac] | [Bd]4) [DGd]4 [EGe]4 [DG-d]4 | %19
 [EGc]4 [DFc]4 [DGB]8 | z4 [DB]4 [DB]4 (E2 F2) | G8 (F6 G2 | A8) B4 G4 | [EG]8 [DF]8 |: %24
 z2 (D2 G2 F2) z2 (E2 A2 G2) |!>(! z2 (F2 B2 A2) z2 (G2 c2 B2) | %26
 z2 (A2- d2!>)! c2)!<(! [GB]4 [Bd]4!<)! |!<(! [DB]4 [CFA]4 (G2 F2!<)! E2 G2) | %28
 [A,DF]4 [DG]4"_dim." [CE]4 G4 |!>(! G4 F4 G8!>)! :|!f! z4 ([GB]3 [Ac] [Bd]4) [DGB]4 | %31
 A2 G2 G8 [A,DF]4 | [B,DG]4 z4 z4 ([GB]3 [Ac] | [Bd]4) [DGd]4 [EGe]4 [DG-d]4 | %34
 [EGc]4 [DFc]4 [DGB]8 | z4 [DB]4 [DB]4 (E2 F2) | G8 D8 | A8 B4 G4 | [EG]8 [DF]8 | %39
 z2 (D2 G2 F2) z2 (E2 A2 G2) | z2!>(! (F2 B2 A2) z2 (G2 c2 B2) | %41
 z2 (A2-!>)! d2 c2)!<(! [GB]4 [Bd]4!<)! |!<(! [DB]4 [CFA]4 (G2 F2 E2!<)! G2) | %43
 [A,DF]4"_dim." [DG]4 [CE]4 G4 |!>(! G4 F4 G8!>)! |] %45
V:3
 x8 z4 [Bd]4 | [CE]4 (B,2 C2 D4) x4 | x16 | x16 |[K:G] x16 | x12 C4 | D4 E4 D8 | z4 F4 x8 | %8
 (F4 ^C4) x8 |: x16 | x16 | x4 A4 x8 | x8 D4 C4 | x12 (B,2 C2) | D8 [B,D]8 :| x16 | %16
 [CE]4 (B,2 C2 D4) x4 | x16 | x16 | x16 | x12 C4 | D4 E4 D8 | z4 F4 x8 | (D4 ^C4) x8 |: x16 | x16 | %26
 x4 A4 x8 | x8 D4 C4 | x12 (B,2 C2) | D8 [B,D]8 :| x16 | [CE]4 (B,2 C2 D4) x4 | x16 | x16 | x16 | %35
 x12 C4 | D4 E4 F6 G2 | z4 F4 x8 | (F4 ^C4) x8 | x16 | x16 | x4 A4 x8 | x8 D4 C4 | x12 (B,2 C2) | %44
 D8 [B,D]8 |] %45
V:4
 x16 | x16 | x16 | x16 |[K:G] x16 | x16 | x16 | D8 D4 D4 | x16 |: x16 | x16 | x16 | x16 | x16 | %14
 A,6 C2 x8 :| x16 | x16 | x16 | x16 | x16 | x16 | x16 | D8 D4 D4 | x16 |: x16 | x16 | x16 | x16 | %28
 x16 | A,6 C2 x8 :| x16 | x16 | x16 | x16 | x16 | x16 | x16 | D8 D4 D4 | x16 | x16 | x16 | x16 | %42
 x16 | x16 | A,6 C2 x8 |] %45
V:5
!f! G,,8 G,4 G,,4 | C,4 E,4 D,8 | [G,,D,]4 z4 z4 ([G,B,]3 [A,C] | [B,D]4) B,4 C4 B,4 | %4
[K:G] A,4 D,4 G,8 | G,,8 G,,4 A,,4 | B,,4 C,4 (D,6 E,2 | F,4) D,4 G,2 A,2 B,4 | A,4 A,,4 D,8 |: %9
 B,,4 B,4 C,4 C4 | D,4 D4 E,4 E4 | F,4 D4 G,4 G,,4 | G,,4 A,,4 B,,4 C,4 | D,4 B,,4 (C,2 D,2 E,4) | %14
 D,4 D,4 [G,,D,]8 :| G,,8 G,4 G,,4 | C,4 E,4 D,8 | [G,,D,]4 z4 z4 ([G,B,]3 [A,C] | %18
 [B,D]4) B,4 C4 B,4 | A,4 D,4 C,8 | G,,8 G,,4 A,,4 | B,,4 C,4 (D,6 E,2 | F,4) D,4 (G,2 A,2 B,4) | %23
 A,4 G,,4 D,8 |: B,,4 B,4 C,4 C4 | D,4 D4 E,4 E4 | F,4 D4 G,4 G,,4 | G,,4 A,,4 B,,4 C,4 | %28
 D,4 B,,4 (C,2 D,2 E,4) | D,4 D,4 [G,,D,]8 :| G,,8 G,4 G,,4 | C,4 E,4 D,8 | %32
 [G,,D,]4 z4 z4 ([G,B,]3 [A,C] | [B,D]4) B,4 C4 B,4 | A,4 D,4 G,8 | G,,8 G,,4 A,,4 | %36
 B,,4 C,4 (D,6 E,2 | F,4) D,4 (G,2 A,2 B,4) | A,4 A,,4 D,8 | B,,4 B,4 C,4 C4 | D,4 D4 E,4 E4 | %41
 F,4 D4 G,4 G,,4 | G,,4 A,,4 B,,4 C,4 | D,4 B,,4 (C,2 D,2 E,4) | D,4 D,4 [G,,D,]8 |] %45
V:6
 x16 | x16 | x8 G,,8- | G,,4 x12 |[K:G] x16 | x16 | x16 | x16 | x16 |: x16 | x16 | x16 | x16 | %13
 x16 | x16 :| x16 | x16 | x8 G,,8- | G,,4 x12 | x16 | x16 | x16 | x16 | x16 |: x16 | x16 | x16 | %27
 x16 | x16 | x16 :| x16 | x16 | x8 G,,8- | G,,4 x12 | x16 | x16 | x16 | x16 | x16 | x16 | x16 | %41
 x16 | x16 | x16 | x16 |] %45

